X: 13595
T: Flying Wheelchair, The
R: jig
M: 6/8
K: Gmajor
~G3 GED|DEG A3|efg dBG|~A3 ~B3|
~G3 GED|DEG A3|efg dBG|AGF ~G3:|
|:GAB ~d3|deB dBA|GA ~e3|efg edB|
GBd e2g|eaf g2b|age dBG|A2G E2D:|

